Automatic/src/svg/input_LB.svg

<?xml version="1.0" encoding="UTF-8" standalone="no"?>
<svg
   xmlns:dc="http://purl.org/dc/elements/1.1/"
   xmlns:cc="http://creativecommons.org/ns#"
   xmlns:rdf="http://www.w3.org/1999/02/22-rdf-syntax-ns#"
   xmlns:svg="http://www.w3.org/2000/svg"
   xmlns="http://www.w3.org/2000/svg"
   viewBox="0 0 266.66665 266.66665"
   height="266.66666"
   width="266.66666"
   xml:space="preserve"
   id="svg2"
   version="1.1"><metadata
     id="metadata8"><rdf:RDF><cc:Work
         rdf:about=""><dc:format>image/svg+xml</dc:format><dc:type
           rdf:resource="http://purl.org/dc/dcmitype/StillImage" /></cc:Work></rdf:RDF></metadata><defs
     id="defs6"><clipPath
       id="clipPath18"
       clipPathUnits="userSpaceOnUse"><path
         id="path16"
         d="M 0,256 H 256 V 0 H 0 Z" /></clipPath></defs><g
     transform="matrix(1.3333333,0,0,-1.3333333,-37.333332,303.99999)"
     id="g10"><g
       id="g12"><g
         clip-path="url(#clipPath18)"
         id="g14"><g
           transform="translate(216,228)"
           id="g20"><path
             id="path22"
             style="fill:#ffffff;fill-opacity:1;fill-rule:nonzero;stroke:none"
             d="m 0,0 h -140 c -2.209,0 -4,-1.791 -4,-4 v -72 c 0,-2.209 1.791,-4 4,-4 H 0 c 2.209,0 4,1.791 4,4 V -4 C 4,-1.791 2.209,0 0,0 M 0,-76 H -140 V -4 H 0 Z" /></g><g
           transform="translate(152,32)"
           id="g24"><path
             id="path26"
             style="fill:#ffffff;fill-opacity:1;fill-rule:nonzero;stroke:none"
             d="m 0,0 h -48 c -39.701,0 -72,32.299 -72,72 H 72 C 72,32.299 39.701,0 0,0 m 72,76 h -192 c -2.209,0 -4,-1.791 -4,-4 0,-41.974 34.026,-76 76,-76 H 0 c 41.974,0 76,34.026 76,76 0,2.209 -1.791,4 -4,4" /></g><g
           transform="translate(208,220)"
           id="g28"><path
             id="path30"
             style="fill:#ffffff;fill-opacity:1;fill-rule:nonzero;stroke:none"
             d="m 0,0 h -124 c -2.209,0 -4,-1.791 -4,-4 v -56 c 0,-2.209 1.791,-4 4,-4 H 0 c 2.209,0 4,1.791 4,4 V -4 C 4,-1.791 2.209,0 0,0 M 0,-60 H -124 V -4 H 0 Z" /></g></g></g></g></svg>

<svg xmlns="http://www.w3.org/2000/svg" xml:space="preserve" width="266.667" height="266.667"><defs><clipPath id="a" clipPathUnits="userSpaceOnUse"><path d="M0 256h256V0H0Z"/></clipPath></defs><g clip-path="url(#a)" transform="matrix(1.33333 0 0 -1.33333 -37.333 304)"><path d="M0 0h-140a4 4 0 0 1-4-4v-72a4 4 0 0 1 4-4H0a4 4 0 0 1 4 4v72a4 4 0 0 1-4 4m0-76h-140v72H0Z" style="fill:#fff;fill-opacity:1;fill-rule:nonzero;stroke:none" transform="translate(216 228)"/><path d="M0 0h-48c-39.701 0-72 32.299-72 72H72C72 32.299 39.701 0 0 0m72 76h-192a4 4 0 0 1-4-4c0-41.974 34.026-76 76-76H0c41.974 0 76 34.026 76 76a4 4 0 0 1-4 4" style="fill:#fff;fill-opacity:1;fill-rule:nonzero;stroke:none" transform="translate(152 32)"/><path d="M0 0h-124a4 4 0 0 1-4-4v-56a4 4 0 0 1 4-4H0a4 4 0 0 1 4 4v56a4 4 0 0 1-4 4m0-60h-124v56H0Z" style="fill:#fff;fill-opacity:1;fill-rule:nonzero;stroke:none" transform="translate(208 220)"/></g></svg>
